assets/icons/24px/outline/arrow-circle-backward-five-24px.svg

<svg width="24" height="24" viewBox="0 0 24 24" fill="none" xmlns="http://www.w3.org/2000/svg">
<path d="M4.12222 13.2857C4.12222 17.5462 7.08172 21 11.5 21C15.9183 21 19.5 17.9415 19.5 13.2857C19.5 8.62985 15.9183 5.57136 11.5 5.57136L4.5 5.57137M4.5 5.57137L7.16665 3M4.5 5.57137L7.16665 8.14288" stroke="white" stroke-width="2" stroke-linecap="round" stroke-linejoin="round"/>
<path d="M14 10.3569H10.7552L10.1302 13.5C10.7552 13.1191 10.9096 12.8569 12.125 12.8569C13.3404 12.8569 14 13.357 14 14.8569C14 16.3569 12.6302 16.3569 12.125 16.3569C11.6198 16.3569 10.125 16.3569 10.125 15.3569" stroke="white" stroke-linecap="round" stroke-linejoin="round"/>
</svg>

<svg width="24" height="24" fill="none" xmlns="http://www.w3.org/2000/svg"><path d="M4.122 13.286c0 4.26 2.96 7.714 7.378 7.714s8-3.058 8-7.714c0-4.656-3.582-7.715-8-7.715h-7m0 0L7.167 3M4.5 5.571l2.667 2.572" stroke="#fff" stroke-width="2" stroke-linecap="round" stroke-linejoin="round"/><path d="M14 10.357h-3.245L10.13 13.5c.625-.38.78-.643 1.995-.643s1.875.5 1.875 2-1.37 1.5-1.875 1.5c-.505 0-2 0-2-1" stroke="#fff" stroke-linecap="round" stroke-linejoin="round"/></svg>
